VARIANT
CUT[Siehgst as net, da kimmt er, der mit seim Zylinder]
REG[Europa, Mitteleuropa, Deutschland, Ober - Franken, Koednitz]
KEY[V0003D 08  F 2/4]
MEL[-5-5-6-5  -7_-7_
    -5-5-6-5  1_1_
    3321  1-7-7-7
    11-7-6  -6-5-5-5 //] >>
FCT[Geselligkeits - Lied, Scherz]
